X: 2
T: The Little Diamond
R: polka
M: 2/4
L: 1/8
K: Dmaj
| A>B AF | DF Ad | A2 AF | GF EF | D>E FG | AB cd | e>d ce | d2 d2 :||! | f2 g>e | fd cB | Ad cd | fe e2 | f2 g>e | fd cB | ag ec | d2 d2:||!


Tune 604	Setting 29978

